X:123
T:The Shaver
M:6/8
L:1/8
Q:1/4=120
K:F
c|\
AAA AGF|A2B c2c|F2F B2A|GFG C2c/B/|
A2A AGF|A2B c2B|A2F G2E|(F2A) G2F |
(E2D)C2C|E2F G2A|B2d c2B|(AG)F G2E|F3 F2||
